X:1
T: Because he was a Bonny Lad
C:
R:Reel
Q:232
K:A
M:4/4
L:1/16
|:d2|c2B2 A2a2 fga2 e2c2|d2f2 e2c2 BBB2 B2d2|c2B2 A2a2 fga2 e2c2|d2f2 e2c2 AAA2 A2d2|
c2B2 A2a2 fga2 e2c2|d2f2 e2c2 BBB2 B2d2|c2B2 A2a2 fga2 e2c2|d2f2 e2c2 AAA2 A2d2|
c2B2 A2B2 c2d2 e2c2|d2f2 e2c2 BBB2 B2d2|c2B2 A2B2 c2d2 e2g2|a2g2 a2c2 AAA2 A2d2|
c2A2 e2A2 f2A2 e2A2|d2f2 e2c2 BBB2 B2g2|a2f2 g2e2 f2d2 e2c2|d2f2 e2c2 AAA2 A2:|
